X: 2
T: Scully Casey's
R: slide
M: 12/8
L: 1/8
K: Dmaj
c|dcd AGE F2G A2B|=cBc A2B cBc AB^c|dcd AGE F2G A2e|fed edc d3 d2c||agf gfe fed edc|fec ABc d2e f2e||


Tune 1790	Setting 26402

